X:1
T:Title
%%score { ( 1 4 ) | ( 2 3 ) }
L:1/8
M:9/8
K:A
V:1 treble nm="Grand Piano"
V:4 treble 
V:2 bass 
V:3 bass 
V:1
 z3 z3[Q:1/4=90] [Ec]2 [DB] | [CA]3- [CA]2 [CE] [DF]A[A,DF] | [A,DF]3 [A,CE]3 z AB | c3- c2 c cdc | %4
[M:3/4] B6 |[M:3/8] [Ec]2 [DB] |[M:9/8] [CA]3- [CA]2 [CE] [DF]A[A,DF] | [A,DF]3 [A,CE]3 z AB | %8
 c3- c2 c BcB |[M:3/4] [CA]6 |] %10
V:2
 z3 z3 [A,,A,]2 [A,,A,] | z3 z3 .[D,A,]3 | A,,3 A,,3 A,,C,[E,G,E] | %3
 [A,E]3- [A,E]2 [A,E] E-[G,B,E][A,E] |[M:3/4] [E,G,E]6 |[M:3/8] [A,,A,]2 [A,,A,] | %6
[M:9/8] z3 z3 .[D,A,]3 | A,,3 A,,3 A,,C,[E,G,E] | [A,E]3- [A,E]2 [A,E] [E,E]-[E,A,E][E,G,D] | %9
[M:3/4] [A,,A,]6 |] %10
V:3
 x9 | [A,,A,]3- [A,,A,]2 [A,,A,] z FD, | x9 | z3 z3 .A,3 |[M:3/4] x6 |[M:3/8] x3 | %6
[M:9/8] [A,,A,]3- [A,,A,]2 [A,,A,] z FD, | x9 | z3 z3 .G,3 |[M:3/4] x6 |] %10
V:4
 x9 | x9 | z3 z3 .[A,E]3 | x9 |[M:3/4] x6 |[M:3/8] x3 |[M:9/8] x9 | z3 z3 .[A,E]3 | x9 | %9
[M:3/4] x6 |] %10

